X:67
T:Zig Zag Clog Dance
M:2/4
Q:1/4=100
L:1/16
K:D
%%MIDI channel 1
%%MIDI program 72
%%MIDI transpose 8
%%MIDI grace 1/8
%%MIDI ratio 3 1
AF|DFAF EGBG|FAde fdAF|G2gf edcd|edcB AGFE|DFAF EGBG|FAde fdAF|
G2ed cABc|d2f2d2::cd|eAAA fAAA|gAfA eAAA|eAfA gAfA|
edcB AGFE|DFAF EGBG|FAde fdAF|G2ed cABc|d2f2d2:|
